X: 1
T: Vals efter Lars Orre Rot
S: efter Lars Orre Rot
R: Vals
Z: Håkan Lidén, 2009-02-05
O: Älvdalen, Dalarna
B: http://www.smus.se/earkiv/fmk/browselarge.php?lang=sw&katalogid=Dr+2&bildnr=00019
N: Jämför +
M: 3/4
L: 1/4
K: Am
A c e | a2 a | g/a/ g/f/ e/d/ | c2 c/B/ | A/^G/ A/B/ c/e/ | e/g/ e/c/ A |
c B A/^G/ |1 A3 :|2 A2 e |: e e/c/ e/g/ | e c/c/ c | B B/d/ ^f/d/ |
d B/G/ B/G/ | A A/B/ c/d/ | e/g/ e/c/ A | c B A/^G/ |1 A2 e :|2 A3 |]

